src/activities/babymatch/babymatch.svg

<?xml version="1.0" encoding="UTF-8" standalone="no"?>
<!-- Created with Inkscape (http://www.inkscape.org/) -->

<svg
   xmlns:dc="http://purl.org/dc/elements/1.1/"
   xmlns:cc="http://creativecommons.org/ns#"
   xmlns:rdf="http://www.w3.org/1999/02/22-rdf-syntax-ns#"
   xmlns:svg="http://www.w3.org/2000/svg"
   xmlns="http://www.w3.org/2000/svg"
   xmlns:sodipodi="http://sodipodi.sourceforge.net/DTD/sodipodi-0.dtd"
   xmlns:inkscape="http://www.inkscape.org/namespaces/inkscape"
   width="100"
   height="100"
   id="svg2"
   sodipodi:version="0.32"
   inkscape:version="0.91 r13725"
   version="1.0"
   sodipodi:docname="babymatch.svg">
  <defs
     id="defs4" />
  <sodipodi:namedview
     id="base"
     pagecolor="#ffffff"
     bordercolor="#666666"
     borderopacity="1.0"
     inkscape:pageopacity="0.0"
     inkscape:pageshadow="2"
     inkscape:zoom="12.18106"
     inkscape:cx="47.017079"
     inkscape:cy="48.917174"
     inkscape:document-units="px"
     inkscape:current-layer="layer1"
     width="100px"
     height="100px"
     inkscape:window-width="3200"
     inkscape:window-height="1741"
     inkscape:window-x="-4"
     inkscape:window-y="0"
     showgrid="false"
     inkscape:window-maximized="1" />
  <metadata
     id="metadata7">
    <rdf:RDF>
      <cc:Work
         rdf:about="">
        <dc:format>image/svg+xml</dc:format>
        <dc:type
           rdf:resource="http://purl.org/dc/dcmitype/StillImage" />
      </cc:Work>
    </rdf:RDF>
  </metadata>
  <g
     inkscape:label="Calque 1"
     inkscape:groupmode="layer"
     id="layer1">
    <path
       style="fill:#ff8a3c;fill-opacity:1;fill-rule:evenodd;stroke:none;stroke-width:1px;stroke-linecap:butt;stroke-linejoin:miter;stroke-opacity:1"
       d="M 15.105418,16.859274 L 9.8513598,25.920666 L 8.2094665,33.807433 C 8.2094665,33.807433 8.5378451,41.862004 9.0304131,43.204433 C 9.5229811,44.546861 10.508117,48.23854 11.329064,49.916575 C 12.15001,51.59461 19.53853,55.789699 19.53853,55.789699 C 19.53853,55.789699 26.598671,57.803342 27.747997,57.803342 C 28.897322,57.803342 39.733818,54.950682 39.733818,54.950682 L 45.644634,51.762414 C 45.644634,51.762414 49.420988,42.701022 49.749367,41.022986 C 50.077745,39.344951 49.420988,35.653273 49.256799,33.471827 C 49.09261,31.290381 47.122337,24.578237 45.973012,22.900202 C 44.823687,21.222167 44.16693,17.530488 42.853415,15.684649 C 41.539901,13.83881 39.241249,10.314935 38.584492,9.3081134 C 37.927735,8.3012921 33.002055,4.4418103 33.002055,4.4418103 L 26.270292,5.280828 L 19.53853,10.314935 L 15.105418,16.859274 z "
       id="path17033"
       sodipodi:nodetypes="cccsscsccssssscccc" />
    <path
       style="fill:#9f6710;fill-opacity:1;fill-rule:evenodd;stroke:none;stroke-width:1px;stroke-linecap:butt;stroke-linejoin:miter;stroke-opacity:1"
       d="m 48.2203,60.76879 c 0.67086,0.183459 14.89139,1.796043 14.89139,1.796043 0,0 9.895193,0 10.901484,-0.183458 1.006291,-0.183458 8.68593,-3.003173 8.68593,-3.003173 0,0 2.365641,-0.59814 1.527066,-2.065802 -0.838576,-1.467664 -3.672105,-3.37009 -3.672105,-3.37009 0,0 -4.863739,-0.917289 -6.540891,-1.467663 -1.677151,-0.550374 -10.062909,-1.100748 -11.572345,-0.733832 -1.509436,0.366916 -11.404631,1.83458 -11.404631,1.83458 l -4.444451,1.651121 -1.439683,3.291759 z"
       id="path17035"
       sodipodi:nodetypes="ccscscsscccc"
       inkscape:connector-curvature="0" />
    <path
       style="fill:#9f6710;fill-opacity:1;fill-rule:evenodd;stroke:none;stroke-width:1px;stroke-linecap:butt;stroke-linejoin:miter;stroke-opacity:1"
       d="m 45.094871,58.441512 1.534899,6.714308 3.119597,7.132226 c 0,0 2.627029,3.474672 3.940544,4.206183 0.783115,0.747431 2.854178,1.735285 5.418248,2.377407 0.820947,0.182877 6.731762,1.097266 7.552709,1.097266 0.820947,0 5.582437,-1.645898 6.731763,-2.377408 1.149325,-0.731511 2.955408,-2.377409 4.268922,-3.840429 1.313515,-1.463021 4.268923,-6.034959 4.268923,-6.034959 l 2.470095,-9.71859 -1.813338,-0.522552 -3.447976,2.377408 -7.716898,2.19453 -10.343928,-0.693756 -9.261757,-0.876635 -4.934786,-1.068242 z"
       id="path17037"
       sodipodi:nodetypes="cccccsssccccccccc"
       inkscape:connector-curvature="0" />
    <path
       style="fill:#9f6710;fill-opacity:1;fill-rule:evenodd;stroke:none;stroke-width:1px;stroke-linecap:butt;stroke-linejoin:miter;stroke-opacity:1"
       d="M 54.510857,87.193233 L 60.093294,90.805397 C 60.093294,90.805397 64.420999,91.268574 65.511542,91.133776 C 65.875908,91.088738 69.287896,91.133777 69.944654,90.805398 C 70.601411,90.47702 73.721009,89.163504 74.706145,88.342558 C 75.691281,87.521611 77.333174,86.372286 77.661553,85.715529 C 77.989931,85.058771 77.825742,83.252689 77.825742,83.252689 L 73.392631,79.968902 L 72.571684,76.685115 L 70.273033,76.685115 L 67.317625,76.849304 L 63.377081,76.520926 L 60.421673,76.849305 L 58.77978,76.849304 L 57.137886,80.29728 L 53.361532,83.581067 L 54.510857,87.193233 z "
       id="path17041"
       sodipodi:nodetypes="ccssssccccccccccc" />
    <path
       style="fill:#ffb380;fill-opacity:1;fill-rule:evenodd;stroke:none;stroke-width:1px;stroke-linecap:butt;stroke-linejoin:miter;stroke-opacity:1"
       d="M 18.07943,19.376327 L 13.96507,27.09942 L 12.679333,33.821373 C 12.679333,33.821373 12.936481,40.686346 13.322202,41.830509 C 13.707923,42.97467 14.479366,46.121117 15.122235,47.551318 C 15.765103,48.98152 21.550922,52.557028 21.550922,52.557028 C 21.550922,52.557028 27.079592,54.273271 27.979609,54.273271 C 28.879625,54.273271 37.365492,51.841927 37.365492,51.841927 L 41.994147,49.124542 C 41.994147,49.124542 44.951343,41.401448 45.208491,39.971245 C 45.465638,38.541042 44.951343,35.394597 44.82277,33.535335 C 44.694196,31.676071 43.15131,25.955259 42.251294,24.525057 C 41.351278,23.094854 40.836984,19.948408 39.808393,18.375185 C 38.779804,16.801963 36.97977,13.798537 36.465476,12.940416 C 35.951181,12.082294 32.093969,8.792828 32.093969,8.792828 L 26.822445,9.5079281 L 21.550922,13.798537 L 18.07943,19.376327 z "
       id="path8661"
       sodipodi:nodetypes="cccsscsccssssscccc" />
    <path
       style="fill:white;fill-opacity:0.57184747;fill-rule:evenodd;stroke:none;stroke-width:1px;stroke-linecap:butt;stroke-linejoin:miter;stroke-opacity:1"
       d="M 37.182164,14.186838 L 35.992067,11.899283 L 34.574957,10.453475 C 34.574957,10.453475 32.86685,9.3498957 32.52521,9.2474072 C 32.18357,9.1449208 31.292117,8.7943631 30.838369,8.7044307 C 30.384622,8.6144969 28.556108,9.3822467 28.556108,9.3822467 C 28.556108,9.3822467 27.221353,10.404343 27.071844,10.61813 C 26.922337,10.831916 26.102513,13.260106 26.102513,13.260106 L 25.99283,14.820592 C 25.99283,14.820592 27.375152,16.833279 27.679392,17.136999 C 27.983632,17.440719 28.832369,17.852359 29.30477,18.137248 C 29.777171,18.422136 31.421295,19.026195 31.91776,19.055046 C 32.414224,19.083897 33.26296,19.495537 33.815479,19.518111 C 34.367997,19.540685 35.395622,19.622649 35.689228,19.646068 C 35.982835,19.669487 37.421583,19.311326 37.421583,19.311326 L 38.123797,17.937826 L 37.958619,15.957732 L 37.182164,14.186838 z "
       id="path8663"
       sodipodi:nodetypes="cccsscsccssssscccc" />
    <path
       style="fill:#f4a932;fill-opacity:1;fill-rule:evenodd;stroke:none;stroke-width:1px;stroke-linecap:butt;stroke-linejoin:miter;stroke-opacity:1"
       d="m 48.025379,61.465015 1.79392,4.266415 c 1.309058,2.536487 2.241805,4.808886 3.060814,5.966277 0.983869,0.845231 3.729732,2.797799 4.544598,3.170045 0.814865,0.372246 2.303972,0.579365 2.983027,0.703444 0.679055,0.124082 5.958197,0.210877 6.637252,0.210877 0.679055,0 3.960813,-1.116738 4.91149,-1.613065 0.950677,-0.496329 2.444597,-1.613067 3.531084,-2.605723 1.086488,-0.992656 3.531085,-4.094706 3.531085,-4.094706 l 1.493919,-3.10205 1.664191,-4.346631 -5.031085,2.609482 -6.818925,0.992656 -8.556088,-0.372246 -7.877034,-0.496328 z"
       id="path10437"
       sodipodi:nodetypes="cccssssscccccccc"
       inkscape:connector-curvature="0" />
    <path
       style="fill:#f4a932;fill-opacity:1;fill-rule:evenodd;stroke:none;stroke-width:1px;stroke-linecap:butt;stroke-linejoin:miter;stroke-opacity:1"
       d="M 53.949612,59.764594 C 54.470649,59.854462 64.240087,60.483535 64.240087,60.483535 C 64.240087,60.483535 71.925377,60.483535 72.706931,60.393667 C 73.488487,60.3038 78.177817,59.405124 78.177817,59.405124 C 78.177817,59.405124 80.652741,58.146977 80.001446,57.428037 C 79.35015,56.709096 77.787039,56.259758 77.787039,56.259758 C 77.787039,56.259758 74.009524,55.81042 72.706931,55.540817 C 71.40434,55.271214 64.891382,55.001611 63.71905,55.181347 C 62.546717,55.361082 54.861426,56.080023 54.861426,56.080023 L 51.409558,56.888831 L 49.781318,57.787507 L 51.08391,59.000719 L 53.949612,59.764594 z "
       id="path11324"
       sodipodi:nodetypes="ccscscssccccc" />
    <path
       style="fill:#f4a932;fill-opacity:1;fill-rule:evenodd;stroke:none;stroke-width:1px;stroke-linecap:butt;stroke-linejoin:miter;stroke-opacity:1"
       d="m 60.921403,87.362484 c 2.259028,0.43268 4.90403,0.867264 7.17805,0.59357 1.688389,-0.338958 5.94278,-3.139929 6.524596,-4.122914 l -2.320688,-1.717524 -2.449617,-1.199585 -1.204507,-1.835253 -1.853382,-0.418877 -2.935573,-0.265191 -2.20168,0.265192 -0.611577,2.254129 -1.754292,0.637606 -2.893699,2.544694 z"
       id="path12211"
       sodipodi:nodetypes="ccccccccccccc"
       inkscape:connector-curvature="0" />
  </g>
</svg>

<?xml version="1.0" encoding="UTF-8" standalone="no"?>
<!-- Created with Inkscape (http://www.inkscape.org/) -->
<svg
   xmlns:dc="http://purl.org/dc/elements/1.1/"
   xmlns:cc="http://web.resource.org/cc/"
   xmlns:rdf="http://www.w3.org/1999/02/22-rdf-syntax-ns#"
   xmlns:svg="http://www.w3.org/2000/svg"
   xmlns="http://www.w3.org/2000/svg"
   xmlns:sodipodi="http://sodipodi.sourceforge.net/DTD/sodipodi-0.dtd"
   xmlns:inkscape="http://www.inkscape.org/namespaces/inkscape"
   width="100"
   height="100"
   id="svg2"
   sodipodi:version="0.32"
   inkscape:version="0.44.1"
   version="1.0"
   sodipodi:docbase="/home/mat/Travaux/Inkscape/Gcompris/boardicons"
   sodipodi:docname="babymatch.svg">
  <defs
     id="defs4" />
  <sodipodi:namedview
     id="base"
     pagecolor="#ffffff"
     bordercolor="#666666"
     borderopacity="1.0"
     inkscape:pageopacity="0.0"
     inkscape:pageshadow="2"
     inkscape:zoom="6.0905298"
     inkscape:cx="47.094654"
     inkscape:cy="49.142248"
     inkscape:document-units="px"
     inkscape:current-layer="layer1"
     width="100px"
     height="100px"
     inkscape:window-width="1110"
     inkscape:window-height="919"
     inkscape:window-x="85"
     inkscape:window-y="37" />
  <metadata
     id="metadata7">
    <rdf:RDF>
      <cc:Work
         rdf:about="">
        <dc:format>image/svg+xml</dc:format>
        <dc:type
           rdf:resource="http://purl.org/dc/dcmitype/StillImage" />
      </cc:Work>
    </rdf:RDF>
  </metadata>
  <g
     inkscape:label="Calque 1"
     inkscape:groupmode="layer"
     id="layer1">
    <path
       style="fill:black;fill-opacity:0.30791788;fill-rule:evenodd;stroke:none;stroke-width:1px;stroke-linecap:butt;stroke-linejoin:miter;stroke-opacity:1"
       d="M 37.11171,8.2167466 L 30.36171,9.0604966 L 23.64296,14.091747 L 19.20546,20.622997 L 13.95546,29.685497 L 12.29921,37.560497 C 12.29921,37.560497 12.650392,45.624318 13.14296,46.966747 C 13.635529,48.309175 14.603263,52.007462 15.42421,53.685497 C 16.245156,55.363533 23.64296,59.560497 23.64296,59.560497 C 23.642961,59.560497 30.712384,61.560497 31.86171,61.560497 C 33.011036,61.560498 43.83046,58.716747 43.83046,58.716747 L 49.73671,55.529247 C 49.73671,55.529246 53.533331,46.457283 53.86171,44.779247 C 54.190088,43.101213 53.525899,39.429443 53.36171,37.247997 C 53.197521,35.066551 51.229785,28.332282 50.08046,26.654247 C 48.931135,24.976211 48.268975,21.281336 46.95546,19.435497 C 45.641945,17.589659 43.330967,14.067319 42.67421,13.060497 C 42.017452,12.053676 37.11171,8.2167466 37.11171,8.2167466 z M 68.73671,55.372997 C 67.712075,55.364397 66.926569,55.406268 66.54921,55.497997 C 65.039773,55.864914 55.14296,57.341747 55.14296,57.341747 L 50.70546,58.997997 L 49.23671,61.997997 L 48.76796,61.435497 L 50.73671,68.935497 L 53.86171,76.060497 C 53.86171,76.060495 56.485695,79.516486 57.79921,80.247997 C 58.461309,80.879928 60.05749,81.689096 62.08046,82.310497 L 61.23671,84.060497 L 57.45546,87.341747 L 58.61171,90.966747 L 64.20546,94.560497 C 64.20546,94.560497 68.521167,95.039045 69.61171,94.904247 C 69.976075,94.859211 73.392451,94.888876 74.04921,94.560497 C 74.705967,94.23212 77.814074,92.912693 78.79921,92.091747 C 79.784346,91.270798 81.439581,90.123504 81.76796,89.466747 C 82.096338,88.809988 81.92421,87.029247 81.92421,87.029247 L 77.48671,83.747997 L 76.95546,81.622997 C 77.164158,81.521741 77.358003,81.423665 77.48671,81.341747 C 78.636035,80.610235 80.454446,78.992267 81.76796,77.529247 C 83.081475,76.066227 86.01796,71.466747 86.01796,71.466747 L 88.48671,62.154247 L 88.39296,62.091747 C 88.525949,61.816137 88.557985,61.489958 88.33046,61.091747 C 87.491883,59.624082 84.64296,57.716747 84.64296,57.716747 C 84.64296,57.716747 79.788862,56.798371 78.11171,56.247997 C 76.853847,55.835216 71.810614,55.398796 68.73671,55.372997 z M 49.98671,62.935497 L 50.86171,63.529247 L 50.39296,63.435497 L 49.98671,62.935497 z "
       id="path13104" />
    <path
       style="fill:black;fill-opacity:1;fill-rule:evenodd;stroke:none;stroke-width:1px;stroke-linecap:butt;stroke-linejoin:miter;stroke-opacity:1"
       d="M 15.105418,16.859274 L 9.8513598,25.920666 L 8.2094665,33.807433 C 8.2094665,33.807433 8.5378451,41.862004 9.0304131,43.204433 C 9.5229811,44.546861 10.508117,48.23854 11.329064,49.916575 C 12.15001,51.59461 19.53853,55.789699 19.53853,55.789699 C 19.53853,55.789699 26.598671,57.803342 27.747997,57.803342 C 28.897322,57.803342 39.733818,54.950682 39.733818,54.950682 L 45.644634,51.762414 C 45.644634,51.762414 49.420988,42.701022 49.749367,41.022986 C 50.077745,39.344951 49.420988,35.653273 49.256799,33.471827 C 49.09261,31.290381 47.122337,24.578237 45.973012,22.900202 C 44.823687,21.222167 44.16693,17.530488 42.853415,15.684649 C 41.539901,13.83881 39.241249,10.314935 38.584492,9.3081134 C 37.927735,8.3012921 33.002055,4.4418103 33.002055,4.4418103 L 26.270292,5.280828 L 19.53853,10.314935 L 15.105418,16.859274 z "
       id="path17033"
       sodipodi:nodetypes="cccsscsccssssscccc" />
    <path
       style="fill:black;fill-opacity:1;fill-rule:evenodd;stroke:none;stroke-width:1px;stroke-linecap:butt;stroke-linejoin:miter;stroke-opacity:1"
       d="M 48.2203,60.76879 C 48.89116,60.952249 63.11169,62.564833 63.11169,62.564833 C 63.11169,62.564833 73.006883,62.564833 74.013174,62.381375 C 75.019465,62.197917 82.699104,59.378202 82.699104,59.378202 C 82.699104,59.378202 85.064745,58.780062 84.22617,57.3124 C 83.387594,55.844736 80.554065,53.94231 80.554065,53.94231 C 80.554065,53.94231 75.690326,53.025021 74.013174,52.474647 C 72.336023,51.924273 63.950265,51.373899 62.440829,51.740815 C 60.931393,52.107731 51.036198,53.575395 51.036198,53.575395 L 46.591747,55.226516 L 44.987875,58.538799 L 48.2203,60.76879 z "
       id="path17035"
       sodipodi:nodetypes="ccscscsscccc" />
    <path
       style="fill:black;fill-opacity:1;fill-rule:evenodd;stroke:none;stroke-width:1px;stroke-linecap:butt;stroke-linejoin:miter;stroke-opacity:1"
       d="M 44.659498,57.657841 L 46.62977,65.15582 L 49.749367,72.288046 C 49.749367,72.288046 52.376396,75.762718 53.689911,76.494229 C 54.473026,77.24166 56.544089,78.229514 59.108159,78.871636 C 59.929106,79.054513 65.839921,79.968902 66.660868,79.968902 C 67.481815,79.968902 72.243305,78.323004 73.392631,77.591494 C 74.541956,76.859983 76.348039,75.214085 77.661553,73.751065 C 78.975068,72.288044 81.930476,67.716106 81.930476,67.716106 L 84.393315,58.389351 L 82.587233,57.474964 L 79.139257,59.852372 L 71.422359,62.046902 L 61.078431,61.49827 L 51.55545,60.766759 L 46.301391,59.669493 L 44.659498,57.657841 z "
       id="path17037"
       sodipodi:nodetypes="cccccsssccccccccc" />
    <path
       style="fill:black;fill-opacity:1;fill-rule:evenodd;stroke:none;stroke-width:1px;stroke-linecap:butt;stroke-linejoin:miter;stroke-opacity:1"
       d="M 54.510857,87.193233 L 60.093294,90.805397 C 60.093294,90.805397 64.420999,91.268574 65.511542,91.133776 C 65.875908,91.088738 69.287896,91.133777 69.944654,90.805398 C 70.601411,90.47702 73.721009,89.163504 74.706145,88.342558 C 75.691281,87.521611 77.333174,86.372286 77.661553,85.715529 C 77.989931,85.058771 77.825742,83.252689 77.825742,83.252689 L 73.392631,79.968902 L 72.571684,76.685115 L 70.273033,76.685115 L 67.317625,76.849304 L 63.377081,76.520926 L 60.421673,76.849305 L 58.77978,76.849304 L 57.137886,80.29728 L 53.361532,83.581067 L 54.510857,87.193233 z "
       id="path17041"
       sodipodi:nodetypes="ccssssccccccccccc" />
    <path
       style="fill:#ffb380;fill-opacity:1;fill-rule:evenodd;stroke:none;stroke-width:1px;stroke-linecap:butt;stroke-linejoin:miter;stroke-opacity:1"
       d="M 18.07943,19.376327 L 13.96507,27.09942 L 12.679333,33.821373 C 12.679333,33.821373 12.936481,40.686346 13.322202,41.830509 C 13.707923,42.97467 14.479366,46.121117 15.122235,47.551318 C 15.765103,48.98152 21.550922,52.557028 21.550922,52.557028 C 21.550922,52.557028 27.079592,54.273271 27.979609,54.273271 C 28.879625,54.273271 37.365492,51.841927 37.365492,51.841927 L 41.994147,49.124542 C 41.994147,49.124542 44.951343,41.401448 45.208491,39.971245 C 45.465638,38.541042 44.951343,35.394597 44.82277,33.535335 C 44.694196,31.676071 43.15131,25.955259 42.251294,24.525057 C 41.351278,23.094854 40.836984,19.948408 39.808393,18.375185 C 38.779804,16.801963 36.97977,13.798537 36.465476,12.940416 C 35.951181,12.082294 32.093969,8.792828 32.093969,8.792828 L 26.822445,9.5079281 L 21.550922,13.798537 L 18.07943,19.376327 z "
       id="path8661"
       sodipodi:nodetypes="cccsscsccssssscccc" />
    <path
       style="fill:white;fill-opacity:0.57184747;fill-rule:evenodd;stroke:none;stroke-width:1px;stroke-linecap:butt;stroke-linejoin:miter;stroke-opacity:1"
       d="M 37.182164,14.186838 L 35.992067,11.899283 L 34.574957,10.453475 C 34.574957,10.453475 32.86685,9.3498957 32.52521,9.2474072 C 32.18357,9.1449208 31.292117,8.7943631 30.838369,8.7044307 C 30.384622,8.6144969 28.556108,9.3822467 28.556108,9.3822467 C 28.556108,9.3822467 27.221353,10.404343 27.071844,10.61813 C 26.922337,10.831916 26.102513,13.260106 26.102513,13.260106 L 25.99283,14.820592 C 25.99283,14.820592 27.375152,16.833279 27.679392,17.136999 C 27.983632,17.440719 28.832369,17.852359 29.30477,18.137248 C 29.777171,18.422136 31.421295,19.026195 31.91776,19.055046 C 32.414224,19.083897 33.26296,19.495537 33.815479,19.518111 C 34.367997,19.540685 35.395622,19.622649 35.689228,19.646068 C 35.982835,19.669487 37.421583,19.311326 37.421583,19.311326 L 38.123797,17.937826 L 37.958619,15.957732 L 37.182164,14.186838 z "
       id="path8663"
       sodipodi:nodetypes="cccsscsccssssscccc" />
    <path
       style="fill:#d4aa00;fill-opacity:1;fill-rule:evenodd;stroke:none;stroke-width:1px;stroke-linecap:butt;stroke-linejoin:miter;stroke-opacity:1"
       d="M 48.025379,61.465015 L 49.819299,65.73143 C 51.128357,68.267917 53.066764,69.801464 53.372681,70.917808 C 54.459168,71.414136 56.609845,73.920843 57.424711,74.293089 C 58.239576,74.665335 59.461875,74.9135 60.14093,75.037581 C 60.819985,75.161663 66.365935,75.782073 67.04499,75.782073 C 67.724045,75.782073 71.005803,74.665335 71.95648,74.169008 C 72.907157,73.672679 74.401077,72.555941 75.487564,71.563285 C 76.574052,70.570629 79.018649,67.468579 79.018649,67.468579 L 80.512568,64.366529 L 82.176759,60.019898 L 77.145674,62.62938 L 70.326749,63.622036 L 61.770661,63.24979 L 53.893627,62.753462 L 48.025379,61.465015 z "
       id="path10437"
       sodipodi:nodetypes="cccssssscccccccc" />
    <path
       style="fill:#fc0;fill-opacity:1;fill-rule:evenodd;stroke:none;stroke-width:1px;stroke-linecap:butt;stroke-linejoin:miter;stroke-opacity:1"
       d="M 53.949612,59.764594 C 54.470649,59.854462 64.240087,60.483535 64.240087,60.483535 C 64.240087,60.483535 71.925377,60.483535 72.706931,60.393667 C 73.488487,60.3038 78.177817,59.405124 78.177817,59.405124 C 78.177817,59.405124 80.652741,58.146977 80.001446,57.428037 C 79.35015,56.709096 77.787039,56.259758 77.787039,56.259758 C 77.787039,56.259758 74.009524,55.81042 72.706931,55.540817 C 71.40434,55.271214 64.891382,55.001611 63.71905,55.181347 C 62.546717,55.361082 54.861426,56.080023 54.861426,56.080023 L 51.409558,56.888831 L 49.781318,57.787507 L 51.08391,59.000719 L 53.949612,59.764594 z "
       id="path11324"
       sodipodi:nodetypes="ccscscssccccc" />
    <path
       style="fill:#d4aa00;fill-opacity:1;fill-rule:evenodd;stroke:none;stroke-width:1px;stroke-linecap:butt;stroke-linejoin:miter;stroke-opacity:1"
       d="M 60.921403,87.362484 C 63.180431,87.795164 65.825433,88.229748 68.099453,87.956054 C 69.787842,87.617096 74.042233,84.816125 74.624049,83.83314 L 72.303361,82.115616 L 69.853744,80.916031 L 68.997535,78.529306 L 66.795855,78.661901 L 63.860282,78.39671 L 61.658602,78.661902 L 61.047025,80.916031 L 59.292733,81.553637 L 56.399034,84.098331 L 60.921403,87.362484 z "
       id="path12211"
       sodipodi:nodetypes="ccccccccccccc" />
    <path
       style="fill:black;fill-opacity:0.37829912;fill-rule:evenodd;stroke:none;stroke-width:1px;stroke-linecap:butt;stroke-linejoin:miter;stroke-opacity:1"
       d="M 50.241935,67.983081 L 58.61559,72.416193 L 63.048702,73.565518 L 69.287897,73.401329 C 69.287897,73.401329 72.900062,71.595246 73.556819,71.266867 C 74.213577,70.938489 78.810878,67.983081 78.810878,67.983081 L 77.168985,71.266867 L 71.586547,75.699979 L 65.675732,76.685115 L 59.436537,75.699979 L 54.510857,73.729707 L 50.241935,67.983081 z "
       id="path12213" />
    <path
       style="fill:black;fill-opacity:0.37829913;fill-rule:evenodd;stroke:none;stroke-width:1px;stroke-linecap:butt;stroke-linejoin:miter;stroke-opacity:1"
       d="M 60.257484,80.215186 L 58.287211,82.513837 L 63.048702,85.305056 L 67.974382,85.633434 C 67.974382,85.633434 73.885198,82.842216 74.541955,83.170595 L 70.437223,79.886808 L 66.660868,76.9314 L 60.421673,77.916536 L 60.257484,80.215186 z "
       id="path13100"
       sodipodi:nodetypes="ccccccccc" />
    <path
       style="fill:black;fill-opacity:0.37829913;fill-rule:evenodd;stroke:none;stroke-width:1px;stroke-linecap:butt;stroke-linejoin:miter;stroke-opacity:1"
       d="M 12.247754,40.124512 L 20.530223,47.723589 L 25.245133,50.076302 L 32.371998,50.902492 C 32.371998,50.902492 36.969649,48.994427 37.805586,48.647506 C 38.641523,48.300586 44.674087,44.956155 44.674087,44.956155 L 41.905468,49.258404 L 34.347488,54.497195 L 27.367082,54.871524 L 20.556978,52.442359 L 15.509254,48.861359 L 12.247754,40.124512 z "
       id="path13102" />
  </g>
</svg>
